X: 3152
T: MISS FALCONER
Q: "Reel."
R: Reel.
%R: reel
B: James Kerr "Merry Melodies" v.3 p.18 #152
Z: 2016 John Chambers <jc:trillian.mit.edu>
M: C
L: 1/8
K: Am
(vc/B/) |\
AGAB c2(cd) | BGdG eGdG |\
AGAB c2(cd) | BGdB cAA ::\
B |\
Aaag aecA |
Ggg^f gdBG |\
[1 Aaag aedf | ecdB cAA :|\
[2 AcBd cedf | ecdB cAA |]

%%sep 1 1 500
%%sep 1 1 500

